**kern	**text	**kern	**text	**kern	**text	**kern	**text	**kern	**text
*staff5	*staff5	*staff4	*staff4	*staff3	*staff3	*staff2	*staff2	*staff1	*staff1
*I"Basso	*	*I"Tenore	*	*I"Alto	*	*I"Soprano II	*	*I"Soprano I	*
=1-	=1-	=1-	=1-	=1-	=1-	=1-	=1-	=1-	=1-
*clefF4	*	*clefGv2	*	*clefGv2	*	*clefG2	*	*clefG2	*
*k[]	*	*k[]	*	*k[]	*	*k[]	*	*k[]	*
*met(c|)	*	*met(c|)	*	*met(c|)	*	*met(c|)	*	*met(c|)	*
*M2/2	*	*M2/2	*	*M2/2	*	*M2/2	*	*M2/2	*
1AA	A-	1A	A-	1c	A-	1r	.	1e	A-
=2	=2	=2	=2	=2	=2	=2	=2	=2	=2
[1AA	-mi-	[1A	-mi-	[1c	-mi-	1r	.	[1e	-mi-
=3	=3	=3	=3	=3	=3	=3	=3	=3	=3
2AA/]	.	2A/]	.	2c\]	.	1r	.	2e/]	.
2AA/	-cus	2A/	-cus	2c\	-cus	.	.	2e/	-cus
=4	=4	=4	=4	=4	=4	=4	=4	=4	=4
1E	me-	1G#	me-	1B	me-	1r	.	1e	me-
=5	=5	=5	=5	=5	=5	=5	=5	=5	=5
1AA	-us	1A	-us	1c	-us	1r	.	[1e	-us
=6	=6	=6	=6	=6	=6	=6	=6	=6	=6
2.A\	o-	2.c\	o-	2r	.	1r	.	1e]	.
.	.	.	.	[2e\	o-	.	.	.	.
4A\	-scu-	4c\	-scu-	.	.	.	.	.	.
=7	=7	=7	=7	=7	=7	=7	=7	=7	=7
2A\	-li	2c\	-li	4e\]	.	1r	.	2.a/	o-
.	.	.	.	4e\	-scu-	.	.	.	.
2A\	me	2c\	me	2e\	-li	.	.	.	.
.	.	.	.	.	.	.	.	4a/	-scu-
=8	=8	=8	=8	=8	=8	=8	=8	=8	=8
1F	tra-	1c	tra-	2f\	me	1r	.	2a/	-li
.	.	.	.	[2f\	tra-	.	.	2a/	me
=9	=9	=9	=9	=9	=9	=9	=9	=9	=9
1F	-di-	2d\	-di-	2f\]	.	1r	.	2.a/	tra-
.	.	2A/	.	2c\	-di-	.	.	.	.
.	.	.	.	.	.	.	.	4a/	-di-
=10	=10	=10	=10	=10	=10	=10	=10	=10	=10
1D	-dit	[1d	.	1f	-dit	1r	.	1a	-dit
=11	=11	=11	=11	=11	=11	=11	=11	=11	=11
!!linebreak:original
2.E\	si-	4d\]	.	1e	si-	1r	.	[1g	si-
.	.	4c\	-dit	.	.	.	.	.	.
.	.	[2c\	si-	.	.	.	.	.	.
4F\	.	.	.	.	.	.	.	.	.
=12	=12	=12	=12	=12	=12	=12	=12	=12	=12
1G	.	2c\]	.	1d	.	1r	.	1g]	.
.	.	2B\	.	.	.	.	.	.	.
=13	=13	=13	=13	=13	=13	=13	=13	=13	=13
2C/	-gno:	2c\	-gno:	2e\	-gno:	1r	.	2g/	-gno:
2C/	Quem	2c\	Quem	2e\	Quem	.	.	2g/	Quem
=14	=14	=14	=14	=14	=14	=14	=14	=14	=14
2G\	o-	2B\	o-	2d\	o-	1r	.	2g/	o-
2E\	-scu-	2c\	-scu-	2e\	-scu-	.	.	2g/	-scu-
=15	=15	=15	=15	=15	=15	=15	=15	=15	=15
2F\	-la-	2A/	-la-	2c\	-la-	1r	.	2f/	-la-
2A\	-tus	2c\	-tus	2c\	-tus	.	.	2e/	-tus
=16	=16	=16	=16	=16	=16	=16	=16	=16	=16
2.G\	fu-	2.B\	fu-	2.d\	fu-	1r	.	2.g/	fu-
4G\	-e-	4B\	-e-	4d\	-e-	.	.	4g/	-e-
=17	=17	=17	=17	=17	=17	=17	=17	=17	=17
1G	-ro,	1B	-ro,	1d	-ro,	1r	.	1g	-ro,
=18	=18	=18	=18	=18	=18	=18	=18	=18	=18
1C	i-	1c	i-	1e	i-	1r	.	1g	i-
=19	=19	=19	=19	=19	=19	=19	=19	=19	=19
2GG/	-pse	2B\	-pse	2d\	-pse	1r	.	2g/	-pse
[2C/	est,	[2c\	est,	[2e\	est,	.	.	[2g/	est,
=20	=20	=20	=20	=20	=20	=20	=20	=20	=20
2C/]	.	2c\]	.	2e\]	.	1r	.	2g/]	.
2D\	te-	2A/	te-	2d\	te-	.	.	2f/	te-
=21	=21	=21	=21	=21	=21	=21	=21	=21	=21
1E	-ne-	2A/	-ne-	2c\	-ne-	1r	.	2.e/	-ne-
.	.	2G#i/	-te	2B\	-te	.	.	.	.
.	.	.	.	.	.	.	.	4e/	.
=22	=22	=22	=22	=22	=22	=22	=22	=22	=22
!!pagebreak:original
1F	-te	4c\	e-	1A	e-	1r	.	2d/	.
.	.	4B\	.	.	.	.	.	.	.
.	.	[2A/	.	.	.	.	.	2d/	-te
=23	=23	=23	=23	=23	=23	=23	=23	=23	=23
1E	e-	2A/]	.	1B	.	1r	.	1e	e-
.	.	2G#/	.	.	.	.	.	.	.
=24	=24	=24	=24	=24	=24	=24	=24	=24	=24
1AA	-um:	1A	-um:	1c#	-um:	1r	.	1e	-um:
=25	=25	=25	=25	=25	=25	=25	=25	=25	=25
2r	.	2r	.	2r	.	1r	.	2r	.
2AA/	hoc	2A/	hoc	2c#\	hoc	.	.	2e/	hoc
=26	=26	=26	=26	=26	=26	=26	=26	=26	=26
2AA/	ma-	2A/	ma-	2c#\	ma-	1r	.	2e/	ma-
2AA/	-lum	2A/	-lum	2c#\	-lum	.	.	2e/	-lum
=27	=27	=27	=27	=27	=27	=27	=27	=27	=27
2D\	si-	2A/	si-	2d\	si-	1r	.	2f/	si-
2C/	-gnum	2c\	-gnum	2e\	-gnum	.	.	2g/	-gnum
=28	=28	=28	=28	=28	=28	=28	=28	=28	=28
1F	fe-	1c	fe-	1f	fe-	1r	.	1a	fe-
=29	=29	=29	=29	=29	=29	=29	=29	=29	=29
2C/	-cit,	2c\	-cit,	2e\	-cit,	1r	.	2g/	-cit,
[2C/	qui	[2c\	qui	[2e\	qui	.	.	[2g/	qui
=30	=30	=30	=30	=30	=30	=30	=30	=30	=30
2C/]	.	2c\]	.	2e\]	.	1r	.	2g/]	.
2GG/	per	2B\	per	2d\	per	.	.	2g/	per
=31	=31	=31	=31	=31	=31	=31	=31	=31	=31
!!linebreak:original
2.C/	o-	2.c\	o-	2.e\	o-	1r	.	2.g/	o-
4C/	-scu-	4c\	-scu-	4e\	-scu-	.	.	4g/	-scu-
=32	=32	=32	=32	=32	=32	=32	=32	=32	=32
2C/	-lum	2c\	-lum	2e\	-lum	1r	.	2g/	-lum
2C/	ad-	2c\	ad-	2e\	ad-	.	.	2g/	ad-
=33	=33	=33	=33	=33	=33	=33	=33	=33	=33
2C/	-im-	2c\	-im-	2e\	-im-	1r	.	2g/	-im-
[2C/	-ple-	[2c\	-ple-	[2e\	-ple-	.	.	[2g/	-ple-
=34	=34	=34	=34	=34	=34	=34	=34	=34	=34
2C/]	.	2c\]	.	2e\]	.	1r	.	2g/]	.
2D\	-vit	[2A/	-vit	2d\	-vit	.	.	[2f/	-vit
=35	=35	=35	=35	=35	=35	=35	=35	=35	=35
1E	ho-	2A/]	.	2c\	.	1r	.	2f/]	.
.	.	2G#/	ho-	2B\	ho-	.	.	[2e/	ho-
=36	=36	=36	=36	=36	=36	=36	=36	=36	=36
1F	-mi-	[1A	-mi-	1A	-mi-	1r	.	2e/]	.
.	.	.	.	.	.	.	.	2d/	-mi-
=37	=37	=37	=37	=37	=37	=37	=37	=37	=37
[1E	-ci-	2A/]	.	[1B	-ci-	1r	.	[1e	-ci-
.	.	4G#/	-ci-	.	.	.	.	.	.
.	.	4F#/	.	.	.	.	.	.	.
=38	=38	=38	=38	=38	=38	=38	=38	=38	=38
2E\]	.	2G#i/	.	2B\]	.	1r	.	2e/]	.
2E\	-di-	2G#/	-di-	2B\	-di-	.	.	2e/	-di-
=39	=39	=39	=39	=39	=39	=39	=39	=39	=39
[1AA	-um.	[1A	-um.	[1c#	-um.	1r	.	[1e	-um.
=40	=40	=40	=40	=40	=40	=40	=40	=40	=40
1AA]	.	1A]	.	1c#]	.	1r	.	1e]	.
!!linebreak:original
=41||	=41||	=41||	=41||	=41||	=41||	=41||	=41||	=41||	=41||
!!linebreak:original
[1E	In-	[1B	In-	[1e	In-	1r	.	[1g#	In-
=42	=42	=42	=42	=42	=42	=42	=42	=42	=42
1E]	.	1B]	.	1e]	.	1r	.	1g#]	.
=43	=43	=43	=43	=43	=43	=43	=43	=43	=43
1A	-fe-	1c	-fe-	1e	-fe-	1r	.	1a	-fe-
=44	=44	=44	=44	=44	=44	=44	=44	=44	=44
2E\	-lix	2B\	-lix	2e\	-lix	1r	.	2g#/	-lix
2E\	prae-	2B\	prae-	2e\	prae-	.	.	2g#/	prae-
=45	=45	=45	=45	=45	=45	=45	=45	=45	=45
2E\	-ter-	2B\	-ter-	2e\	-ter-	1r	.	2g#i/	-ter-
[2E\	-mi-	[2B\	-mi-	[2e\	-mi-	.	.	[2g#/	-mi-
=46	=46	=46	=46	=46	=46	=46	=46	=46	=46
2E\]	.	2B\]	.	2e\]	.	1r	.	2g#/]	.
2AA/	-sit	2c\	-sit	2e\	-sit	.	.	2a/	-sit
=47	=47	=47	=47	=47	=47	=47	=47	=47	=47
2.D\	pre-	2.A/	pre-	2.d\	pre-	1r	.	2.f/	pre-
4D\	-ti-	4A/	-ti-	4d\	-ti-	.	.	4f/	-ti-
=48	=48	=48	=48	=48	=48	=48	=48	=48	=48
2C/	-um	2c\	-um	2G/	-um	1r	.	2e/	-um
[2F\	san-	[2c\	san-	[2A/	san-	.	.	[2f/	san-
=49	=49	=49	=49	=49	=49	=49	=49	=49	=49
2F\]	.	2c\]	.	2A/]	.	1r	.	2f/]	.
2C/	-gui-	2c\	-gui-	2G/	-gui-	.	.	2e/	-gui-
=50	=50	=50	=50	=50	=50	=50	=50	=50	=50
1C	-nis,	1c	-nis,	1G	-nis,	1r	.	1e	-nis,
=51	=51	=51	=51	=51	=51	=51	=51	=51	=51
2r	.	2r	.	2r	.	1r	.	2r	.
[2D\	et	[2A/	et	[2d\	et	.	.	[2f#/	et
=52	=52	=52	=52	=52	=52	=52	=52	=52	=52
2D\]	.	2A/]	.	2d\]	.	1r	.	2f#/]	.
2D\	in	2A/	in	2d\	in	.	.	2f#/	in
=53	=53	=53	=53	=53	=53	=53	=53	=53	=53
2D\	fi-	2A/	fi-	2d\	fi-	1r	.	2f#/	fi-
2G\	-ne	2B\	-ne	2d\	-ne	.	.	2g/	-ne
=54	=54	=54	=54	=54	=54	=54	=54	=54	=54
[1F	la-	[1c	la-	[1f	la-	1r	.	[1a	la-
=55	=55	=55	=55	=55	=55	=55	=55	=55	=55
2F\]	.	2c\]	.	2f\]	.	1r	.	2a/]	.
2C/	-que-	2c\	-que-	2e\	-que-	.	.	2g/	-que-
=56	=56	=56	=56	=56	=56	=56	=56	=56	=56
1C	-o	1c	-o	1e	-o	1r	.	[1g	-o
=57	=57	=57	=57	=57	=57	=57	=57	=57	=57
1G	se	1B	.	1d	.	1r	.	1g]	.
=58	=58	=58	=58	=58	=58	=58	=58	=58	=58
1E	su-	1B	se	1e	se	1r	.	1g	se
=59	=59	=59	=59	=59	=59	=59	=59	=59	=59
[1A	-spen-	2.A/	su-	2.c\	su-	1r	.	1e	su-
.	.	4B\	.	4d\	.	.	.	.	.
=60	=60	=60	=60	=60	=60	=60	=60	=60	=60
1A]	.	1c	-spen-	1e	-spen-	1r	.	[1a	-spen-
=61	=61	=61	=61	=61	=61	=61	=61	=61	=61
[1E	-dit.	[1B	-dit.	[1e	-dit.	1r	.	2a/]	.
.	.	.	.	.	.	.	.	4g#/	.
.	.	.	.	.	.	.	.	4f#/	.
=62	=62	=62	=62	=62	=62	=62	=62	=62	=62
1E]	.	1B]	.	1e]	.	1r	.	1g#	-dit.
!!pagebreak:original
=63||	=63||	=63||	=63||	=63||	=63||	=63||	=63||	=63||	=63||
!!pagebreak:original
1r	.	1r	.	1c#	Bo-	1r	.	1e	Bo-
=64	=64	=64	=64	=64	=64	=64	=64	=64	=64
1r	.	1r	.	2B\	.	1r	.	1g	-num
.	.	.	.	2c#i\	-num	.	.	.	.
=65	=65	=65	=65	=65	=65	=65	=65	=65	=65
1r	.	1r	.	2d\	e-	1r	.	2f/	e-
.	.	.	.	[2e\	-rat	.	.	2e/	-rat
=66	=66	=66	=66	=66	=66	=66	=66	=66	=66
1r	.	1r	.	2e\]	.	1r	.	1f	e-
.	.	.	.	2d\	e-	.	.	.	.
=67	=67	=67	=67	=67	=67	=67	=67	=67	=67
1r	.	1r	.	1e	-i,	1r	.	1e	-i,
=68	=68	=68	=68	=68	=68	=68	=68	=68	=68
1r	.	1r	.	1c	bo-	1e	Bo-	2r	.
.	.	.	.	.	.	.	.	[2a/	bo-
=69	=69	=69	=69	=69	=69	=69	=69	=69	=69
1r	.	1r	.	2B\	-num	2d/	-num	2a/]	.
.	.	.	.	[2c\	e-	2e/	e-	2g/	-num
=70	=70	=70	=70	=70	=70	=70	=70	=70	=70
1r	.	1r	.	2c\]	.	2f#/	-rat	2a/	e-
.	.	.	.	2B\	-rat	[2g/	e-	2b\	-rat
=71	=71	=71	=71	=71	=71	=71	=71	=71	=71
1r	.	1r	.	1A	e-	4g/]	.	1cc	e-
.	.	.	.	.	.	8f#/L	.	.	.
.	.	.	.	.	.	8e/J	.	.	.
.	.	.	.	.	.	2f#/	.	.	.
=72	=72	=72	=72	=72	=72	=72	=72	=72	=72
1r	.	1r	.	1G	-i,	1g	-i,	1b	-i,
=73	=73	=73	=73	=73	=73	=73	=73	=73	=73
!!linebreak:original
1r	.	1r	.	2r	.	2r	.	2r	.
.	.	.	.	2c\	si	2e/	si	2g/	si
=74	=74	=74	=74	=74	=74	=74	=74	=74	=74
1r	.	1r	.	1c	na-	1e	na-	1g	na-
=75	=75	=75	=75	=75	=75	=75	=75	=75	=75
1r	.	1r	.	2B\	-tus	2d/	-tus	1g	-tus
.	.	.	.	[2c\	non	[2e/	non	.	.
=76	=76	=76	=76	=76	=76	=76	=76	=76	=76
1r	.	1r	.	2c\]	.	2e/]	.	1a	non
.	.	.	.	2A/	fu-	2f#/	fu-	.	.
=77	=77	=77	=77	=77	=77	=77	=77	=77	=77
1r	.	1r	.	1e	-is-	1g	-is-	1b	fu-
=78	=78	=78	=78	=78	=78	=78	=78	=78	=78
1r	.	1r	.	1A	-set	2e/	-set	1cc	-is-
.	.	.	.	.	.	2a/	ho-	.	.
=79	=79	=79	=79	=79	=79	=79	=79	=79	=79
1r	.	1r	.	[1e	ho-	2g#i/	.	2b\	-set
.	.	.	.	.	.	[2cc\	-mo	[2a/	ho-
=80	=80	=80	=80	=80	=80	=80	=80	=80	=80
1r	.	1r	.	1e]	.	2cc\]	.	2a/]	.
.	.	.	.	.	.	[2b\	il-	2g#i/	-mo
=81	=81	=81	=81	=81	=81	=81	=81	=81	=81
1r	.	1r	.	1f	-mo	4b\]	.	2.cc\	il-
.	.	.	.	.	.	4a/	.	.	.
.	.	.	.	.	.	[2a/	.	.	.
.	.	.	.	.	.	.	.	8b/L	.
.	.	.	.	.	.	.	.	8a/J	.
=82	=82	=82	=82	=82	=82	=82	=82	=82	=82
1r	.	1r	.	1e	il-	2a/]	.	1b	.
.	.	.	.	.	.	2g#/	.	.	.
=83	=83	=83	=83	=83	=83	=83	=83	=83	=83
1r	.	1r	.	[1A	-le.	[1a	-le.	[1cc#	-le.
=84	=84	=84	=84	=84	=84	=84	=84	=84	=84
1r	.	1r	.	1A]	.	1a]	.	1cc#]	.
!!linebreak:original
=85||	=85||	=85||	=85||	=85||	=85||	=85||	=85||	=85||	=85||
!!linebreak:original
[1E	In-	[1B	In-	[1e	In-	1r	.	[1g#	In-
=86	=86	=86	=86	=86	=86	=86	=86	=86	=86
1E]	.	1B]	.	1e]	.	1r	.	1g#]	.
=87	=87	=87	=87	=87	=87	=87	=87	=87	=87
1A	-fe-	1c	-fe-	1e	-fe-	1r	.	1a	-fe-
=88	=88	=88	=88	=88	=88	=88	=88	=88	=88
2E\	-lix	2B\	-lix	2e\	-lix	1r	.	2g#/	-lix
2E\	prae-	2B\	prae-	2e\	prae-	.	.	2g#/	prae-
=89	=89	=89	=89	=89	=89	=89	=89	=89	=89
2E\	-ter-	2B\	-ter-	2e\	-ter-	1r	.	2g#i/	-ter-
[2E\	-mi-	[2B\	-mi-	[2e\	-mi-	.	.	[2g#/	-mi-
=90	=90	=90	=90	=90	=90	=90	=90	=90	=90
2E\]	.	2B\]	.	2e\]	.	1r	.	2g#/]	.
2AA/	-sit	2c\	-sit	2e\	-sit	.	.	2a/	-sit
=91	=91	=91	=91	=91	=91	=91	=91	=91	=91
2.D\	pre-	2.A/	pre-	2.d\	pre-	1r	.	2.f/	pre-
4D\	-ti-	4A/	-ti-	4d\	-ti-	.	.	4f/	-ti-
=92	=92	=92	=92	=92	=92	=92	=92	=92	=92
2C/	-um	2c\	-um	2G/	-um	1r	.	2e/	-um
[2F\	san-	[2c\	san-	[2A/	san-	.	.	[2f/	san-
=93	=93	=93	=93	=93	=93	=93	=93	=93	=93
2F\]	.	2c\]	.	2A/]	.	1r	.	2f/]	.
2C/	-gui-	2c\	-gui-	2G/	-gui-	.	.	2e/	-gui-
=94	=94	=94	=94	=94	=94	=94	=94	=94	=94
1C	-nis,	1c	-nis,	1G	-nis,	1r	.	1e	-nis,
=95	=95	=95	=95	=95	=95	=95	=95	=95	=95
2r	.	2r	.	2r	.	1r	.	2r	.
[2D\	et	[2A/	et	[2d\	et	.	.	[2f#/	et
=96	=96	=96	=96	=96	=96	=96	=96	=96	=96
2D\]	.	2A/]	.	2d\]	.	1r	.	2f#/]	.
2D\	in	2A/	in	2d\	in	.	.	2f#/	in
=97	=97	=97	=97	=97	=97	=97	=97	=97	=97
2D\	fi-	2A/	fi-	2d\	fi-	1r	.	2f#/	fi-
2G\	-ne	2B\	-ne	2d\	-ne	.	.	2g/	-ne
=98	=98	=98	=98	=98	=98	=98	=98	=98	=98
[1F	la-	[1c	la-	[1f	la-	1r	.	[1a	la-
=99	=99	=99	=99	=99	=99	=99	=99	=99	=99
2F\]	.	2c\]	.	2f\]	.	1r	.	2a/]	.
2C/	-que-	2c\	-que-	2e\	-que-	.	.	2g/	-que-
=100	=100	=100	=100	=100	=100	=100	=100	=100	=100
1C	-o	1c	-o	1e	-o	1r	.	[1g	-o
=101	=101	=101	=101	=101	=101	=101	=101	=101	=101
1G	se	1B	.	1d	.	1r	.	1g]	.
=102	=102	=102	=102	=102	=102	=102	=102	=102	=102
1E	su-	1B	se	1e	se	1r	.	1g	se
=103	=103	=103	=103	=103	=103	=103	=103	=103	=103
[1A	-spen-	2.A/	su-	2.c\	su-	1r	.	1e	su-
.	.	4B\	.	4d\	.	.	.	.	.
=104	=104	=104	=104	=104	=104	=104	=104	=104	=104
1A]	.	1c	-spen-	1e	-spen-	1r	.	[1a	-spen-
=105	=105	=105	=105	=105	=105	=105	=105	=105	=105
[1E	-dit.	[1B	-dit.	[1e	-dit.	1r	.	2a/]	.
.	.	.	.	.	.	.	.	4g#/	.
.	.	.	.	.	.	.	.	4f#/	.
=106	=106	=106	=106	=106	=106	=106	=106	=106	=106
1E]	.	1B]	.	1e]	.	1r	.	1g#	-dit.
==	==	==	==	==	==	==	==	==	==
*-	*-	*-	*-	*-	*-	*-	*-	*-	*-
!!!OTL: Amicus meus 
!!!COM: Ingegneri, Marc' Antonio
!!!CDT: ca. 1535/36-1592-07-01
!!!TXO: Latin
!!!ODT: 
!!!ARL: Klasztor OO. Paulinów na Jasnej Górze
!!!voices:	5
!!title: @{OTL}, @{GTL}, ed. @{ENC}
!!!pag:
!!!GTL: Responsoria in Hebdomada majore
!!!EFL: 
!!!YEM: Creative Commons CC/BY/NC/SA 4.0
!!!ENC: Marcin Konik
!!!END: 2015-0m-dd
!!!EED: Marcin Konik
!!!EEV: 
!!!ONB: Encoded in vim by Marcin Konik
!!!CharacterEncoding: utf-8
!!!RDF**kern: l=long note in original notation
!!!RDF**kern: i=editorial accidental
!!muse2ps: z14jc180F
